X:345
T:Sweet Briar, The
R:polka 32
M:2/4
L:1/16
Q:1/4=120
C:Trad arr P J Headford
S:John Mason
R:polka 24/48
B:Coleford Jig, Menteith & Burgess, 2004
Z:P J Headford 2005
K:D
|:A2|d2d2 d2de|f2fe d2f2|e2d2 c2B2|A2G2 FGA2|
B2Bc d2cB|A2d2 f2d2|cdef g2c2|d6:|!
|:z2|e2ef e2ee|c2A2 c4|B2c2 f2e2|d2e2 c4|
e2ef e2ee|c2A2 f4|e2d2 c2B2|A4 A2:|]

